X:495
L:1/8
M:4/4
K:C
[M:2/2][K:D] .abc (AG) | FEDE FGAF | GBAG FDD(E |{G} FE)DE FGAg | fdec dcAG | FEDE FGAF | 
 GBAG FDD(E |{G} FE)DE FGAg | faec d2 || (de) | fedc dcAF | GBAG FDDg | fdec dcAg | faec d2 (de) | 
 fedc dcAF | GBAG FDD(E |{G} FE)DE FGAg | faec d2 |]

